X:6
T:Lost in the loop
C:Liz Carroll
R:jig
D:Lost in the loop
Z:Transcribed by Lionel Gueganton
L:1/8
M:4/4
K:C
|: CDEFDA,A,F | EFGAFDD^F    | GABcdcBc     | dDcDBAGA,   |
   CDEFDA,A,F | EFGAFDD^F    | GABc[d2d2]GF |1 DA,CDFDDD :|2 DA,CDFDDA
|: dDDcBGGG   | ADDFECCD     | dDcDBAGA,    | CDEFDA,A,A  |
   dDDcBGGG   | ADDFECCD     | GABc[d2d2]GF | DA,CDFDDA  :|
|: [d4d4]gadc | [d2d2]dcAGAc | dGGdGGdG     |CDEFDA,A,A   |
   [d4d4]gadc | [d2d2]dcAGAc |1 dDcDGABc    | dDcDA,DDA  :|2 decAG2A/B/c | d/c/BcAA,DDD |

